desktop/resources/assets/cut.svg

<svg width="16" height="16" viewBox="0 0 16 16" fill="none" xmlns="http://www.w3.org/2000/svg">
<path d="M11.78 1.07996C12.01 1.23996 12.07 1.54996 11.92 1.77996L9.21 5.84996L8.6 4.93996L11.08 1.21996C11.24 0.98996 11.55 0.92996 11.78 1.07996ZM10.829 10.092C11.043 10.033 11.268 10 11.5 10V10.001C12.879 10.001 14 11.123 14 12.501C14 13.879 12.879 15.001 11.5 15.001C10.121 15.001 9 13.879 9 12.501C9 11.715 9.365 11.013 9.934 10.554L8.001 7.65405L6.069 10.556C6.636 11.014 7 11.715 7 12.5C7 13.878 5.879 15 4.5 15C3.121 15 2 13.878 2 12.5C2 11.122 3.121 10 4.5 10C4.731 10 4.954 10.032 5.166 10.091L7.395 6.74305L4.084 1.77705C3.931 1.54705 3.994 1.23705 4.223 1.08405C4.45 0.931048 4.762 0.992049 4.916 1.22305L10.829 10.092ZM3 12.5C3 13.327 3.673 14 4.5 14C5.327 14 6 13.327 6 12.5C6 11.673 5.327 11 4.5 11C3.673 11 3 11.673 3 12.5ZM10 12.5C10 13.327 10.673 14 11.5 14C12.327 14 13 13.327 13 12.5C13 11.673 12.327 11 11.5 11C10.673 11 10 11.673 10 12.5Z" fill="#888"/>
</svg>

<svg xmlns="http://www.w3.org/2000/svg" width="16" height="16" fill="none"><path fill="#888" d="M11.78 1.08c.23.16.29.47.14.7L9.21 5.85l-.61-.91 2.48-3.72c.16-.23.47-.29.7-.14m-.951 9.012q.322-.09.671-.092v.001c1.379 0 2.5 1.122 2.5 2.5s-1.121 2.5-2.5 2.5a2.497 2.497 0 0 1-1.566-4.447l-1.933-2.9-1.932 2.902c.567.458.931 1.159.931 1.944C7 13.878 5.879 15 4.5 15A2.503 2.503 0 0 1 2 12.5a2.503 2.503 0 0 1 3.166-2.409l2.229-3.348-3.311-4.966a.5.5 0 0 1 .832-.554zM3 12.5c0 .827.673 1.5 1.5 1.5S6 13.327 6 12.5 5.327 11 4.5 11 3 11.673 3 12.5m7 0c0 .827.673 1.5 1.5 1.5s1.5-.673 1.5-1.5-.673-1.5-1.5-1.5-1.5.673-1.5 1.5"/></svg>
